icons/Figma-Dark.svg

<svg xmlns="http://www.w3.org/2000/svg" width="256" height="256" fill="none" viewBox="0 0 256 256"><rect width="256" height="256" fill="#242938" rx="60"/><g clip-path="url(#clip0_4_180)"><path fill="#0ACF83" d="M94.3467 228C112.747 228 127.68 213.067 127.68 194.667V161.333H94.3467C75.9467 161.333 61.0133 176.267 61.0133 194.667C61.0133 213.067 75.9467 228 94.3467 228Z"/><path fill="#A259FF" d="M61.0133 128C61.0133 109.6 75.9467 94.6667 94.3467 94.6667H127.68V161.333H94.3467C75.9467 161.333 61.0133 146.4 61.0133 128Z"/><path fill="#F24E1E" d="M61.0133 61.3333C61.0133 42.9333 75.9467 28 94.3467 28H127.68V94.6667H94.3467C75.9467 94.6667 61.0133 79.7333 61.0133 61.3333Z"/><path fill="#FF7262" d="M127.68 28H161.013C179.413 28 194.347 42.9333 194.347 61.3333C194.347 79.7333 179.413 94.6667 161.013 94.6667H127.68V28Z"/><path fill="#1ABCFE" d="M194.347 128C194.347 146.4 179.413 161.333 161.013 161.333C142.613 161.333 127.68 146.4 127.68 128C127.68 109.6 142.613 94.6667 161.013 94.6667C179.413 94.6667 194.347 109.6 194.347 128Z"/></g><defs><clipPath id="clip0_4_180"><rect width="133.36" height="200" fill="#fff" transform="translate(61 28)"/></clipPath></defs></svg>

<svg xmlns="http://www.w3.org/2000/svg" width="256" height="256" fill="none" viewBox="0 0 256 256"><rect width="256" height="256" fill="#242938" rx="60"/><g clip-path="url(#a)"><path fill="#0ACF83" d="M94.35 228a33.34 33.34 0 0 0 33.33-33.33v-33.34H94.35a33.35 33.35 0 0 0 0 66.67"/><path fill="#A259FF" d="M61.01 128a33.35 33.35 0 0 1 33.34-33.33h33.33v66.66H94.35A33.35 33.35 0 0 1 61 128"/><path fill="#F24E1E" d="M61.01 61.33A33.35 33.35 0 0 1 94.35 28h33.33v66.67H94.35A33.35 33.35 0 0 1 61 61.33"/><path fill="#FF7262" d="M127.68 28h33.33a33.35 33.35 0 0 1 33.34 33.33A33.35 33.35 0 0 1 161 94.67h-33.33z"/><path fill="#1ABCFE" d="M194.35 128a33.35 33.35 0 0 1-66.67 0 33.35 33.35 0 0 1 66.67 0"/></g><defs><clipPath id="a"><path fill="#fff" d="M61 28h133.36v200H61z"/></clipPath></defs></svg>
